Newaita-dark/apps/48/virtualbox.svg

<svg height="48" viewBox="0 0 48 48" width="48" xmlns="http://www.w3.org/2000/svg" xmlns:xlink="http://www.w3.org/1999/xlink"><linearGradient id="a" gradientUnits="userSpaceOnUse" x1="23.81478" x2="23.81478" y1="42.0509045" y2="44.03547050005"><stop offset="0" stop-opacity=".27451"/><stop offset="1" stop-opacity="0"/></linearGradient><linearGradient id="b"><stop offset="0" stop-opacity=".313726"/><stop offset=".222222" stop-opacity=".27451"/><stop offset="1" stop-opacity="0"/></linearGradient><radialGradient id="c" cx="450.908936" cy="189.579361" gradientTransform="matrix(.00000026 -.117199 -.210958 -.00000015 79.684395 95.392999)" gradientUnits="userSpaceOnUse" r="21.166656" xlink:href="#b"/><radialGradient id="d" cx="450.908936" cy="189.579361" gradientTransform="matrix(-.00000026 .117199 .210958 .00000015 -31.80678 -11.291218)" gradientUnits="userSpaceOnUse" r="21.166656" xlink:href="#b"/><radialGradient id="e" cx="450.908936" cy="189.579361" gradientTransform="matrix(-.00000026 -.117199 .210958 -.00000015 -31.80678 95.392999)" gradientUnits="userSpaceOnUse" r="21.166656" xlink:href="#b"/><radialGradient id="f" cx="450.908936" cy="189.579361" gradientTransform="matrix(.00000026 .117199 -.210958 .00000015 79.684393 -11.291219)" gradientUnits="userSpaceOnUse" r="21.166656" xlink:href="#b"/><linearGradient id="g" gradientUnits="userSpaceOnUse" x1="23.814786" x2="23.814786" y1="42.0509015" y2="4.34415649995"><stop offset="0" stop-color="#1976d2"/><stop offset="1" stop-color="#1e88e5"/></linearGradient><linearGradient id="h" gradientUnits="userSpaceOnUse" x1="25.7993504999" x2="25.7993504999" y1="42.0509015" y2="4.3441580001"><stop offset="0" stop-color="#bdbdbd"/><stop offset="1" stop-color="#e0e0e0"/></linearGradient><path d="m7.691406 42.050781h32.496094v1.984375h-32.496094zm0 0" fill="url(#a)"/><path d="m40.1875 42.050781h3.96875v-1.984375h-3.96875zm0 0" fill="url(#c)"/><path d="m7.691406 42.050781h-3.96875v1.984375h3.96875zm0 0" fill="url(#d)"/><path d="m7.691406 42.050781h-3.96875v-1.984375h3.96875zm0 0" fill="url(#e)"/><path d="m40.1875 42.050781h3.96875v1.984375h-3.96875zm0 0" fill="url(#f)"/><path d="m5.457031 4.34375h36.714844c.820313 0 1.488281.667969 1.488281 1.488281v34.730469c0 .820312-.667968 1.488281-1.488281 1.488281h-36.714844c-.820312 0-1.488281-.667969-1.488281-1.488281v-34.730469c0-.820312.667969-1.488281 1.488281-1.488281zm0 0" fill="url(#g)"/><path d="m5.457031 4.34375c-.824219 0-1.488281.664062-1.488281 1.488281v.25c0-.824219.664062-1.488281 1.488281-1.488281h36.714844c.824219 0 1.488281.664062 1.488281 1.488281v-.25c0-.824219-.664062-1.488281-1.488281-1.488281zm0 0" fill="#fff" fill-opacity=".392157"/><path d="m5.457031 42.050781c-.824219 0-1.488281-.664062-1.488281-1.488281v-.25c0 .824219.664062 1.488281 1.488281 1.488281h36.714844c.824219 0 1.488281-.664062 1.488281-1.488281v.25c0 .824219-.664062 1.488281-1.488281 1.488281zm0 0" fill="#030303" fill-opacity=".235294"/><path d="m5.457031 4.203125c-.898437 0-1.628906.730469-1.628906 1.628906v34.730469c0 .898438.730469 1.628906 1.628906 1.628906h36.714844c.898437 0 1.628906-.730468 1.628906-1.628906v-34.730469c0-.898437-.730469-1.628906-1.628906-1.628906zm0 .28125h36.714844c.75 0 1.347656.597656 1.347656 1.347656v34.730469c0 .75-.597656 1.347656-1.347656 1.347656h-36.714844c-.75 0-1.347656-.597656-1.347656-1.347656v-34.730469c0-.75.597656-1.347656 1.347656-1.347656zm0 0" fill="#212121"/><g fill-rule="evenodd"><path d="m23.777344 10.878906c-.621094.015625-1.15625.433594-1.320313 1.035156l-4.628906 16.96875-2.582031-9.046874c-.175782-.605469-.726563-1.023438-1.355469-1.023438h-3.96875c-.507813-.003906-.976563.261719-1.234375.699219-.253906.4375-.253906.980469 0 1.417969.257812.4375.726562.703124 1.234375.699218h2.910156l3.675781 12.871094c.175782.605469.730469 1.023438 1.363282 1.019531.628906-.003906 1.179687-.429687 1.347656-1.035156l4.386719-16.085937 1.808593 9.042968c.125.640625.679688 1.109375 1.332032 1.128906.65625.023438 1.234375-.410156 1.40625-1.042968l2.460937-9.226563 1.75 8.167969c.136719.648438.710938 1.113281 1.375 1.113281h3.96875c.507813.003907.980469-.261719 1.234375-.699219s.253906-.980468 0-1.417968-.726562-.703125-1.234375-.695313h-2.832031l-2.738281-12.78125c-.136719-.636719-.691407-1.09375-1.339844-1.109375-.652344-.019531-1.226563.414063-1.394531 1.042969l-2.414063 9.050781-1.792969-8.964844c-.136718-.671874-.734374-1.148437-1.417968-1.128906zm0 0" fill="url(#h)"/><path d="m23.777344 10.878906c-.621094.015625-1.15625.433594-1.320313 1.035156l-4.628906 16.96875-2.582031-9.046874c-.175782-.605469-.726563-1.023438-1.355469-1.023438h-3.96875c-.433594-.003906-.847656.191406-1.121094.535156-.269531.34375-.367187.789063-.261719 1.214844.160157-.632812.730469-1.074219 1.382813-1.066406h3.96875c.628906 0 1.179687.414062 1.355469 1.019531l2.582031 9.046875 4.628906-16.96875c.164063-.597656.699219-1.019531 1.320313-1.035156.683594-.019532 1.28125.457031 1.417968 1.128906l1.792969 8.96875 2.414063-9.054688c.167968-.628906.742187-1.058593 1.394531-1.042968.648437.015625 1.203125.476562 1.339844 1.109375l2.738281 12.78125h2.832031c.652344-.007813 1.222657.433593 1.382813 1.066406.105468-.425781.007812-.871094-.261719-1.214844-.269531-.339843-.683594-.539062-1.121094-.53125h-2.832031l-2.738281-12.78125c-.136719-.636719-.691407-1.09375-1.339844-1.113281-.652344-.015625-1.226563.417969-1.394531 1.046875l-2.414063 9.050781-1.792969-8.964844c-.136718-.671874-.734374-1.148437-1.417968-1.128906zm0 0" fill="#f8f8f8"/><path d="m30.613281 18.382812-2.460937 9.230469c-.171875.632813-.75 1.0625-1.40625 1.042969-.652344-.019531-1.207032-.488281-1.332032-1.128906l-1.808593-9.042969-4.386719 16.082031c-.167969.609375-.71875 1.03125-1.347656 1.035156-.632813.003907-1.1875-.410156-1.363282-1.019531l-3.675781-12.871093h-2.910156c-.625.007812-1.179687-.394532-1.363281-.992188-.132813.429688-.050782.894531.21875 1.253906.269531.363282.695312.570313 1.144531.566406h2.910156l3.675781 12.871094c.175782.605469.730469 1.023438 1.363282 1.019532.628906-.003907 1.179687-.429688 1.347656-1.035157l4.386719-16.085937 1.808593 9.042968c.125.640626.679688 1.109376 1.332032 1.128907.65625.023437 1.234375-.410157 1.40625-1.042969l2.460937-9.226562 1.75 8.167968c.136719.648438.710938 1.113282 1.375 1.113282h3.96875c.449219.003906.875-.203126 1.144531-.5625.269532-.359376.351563-.828126.21875-1.257813-.183593.597656-.738281 1-1.363281.992187h-3.96875c-.664062 0-1.238281-.460937-1.375-1.109374zm0 0" fill-opacity=".235294"/></g><path d="m253.600782-98.969414c-6.624367.166651-12.332155 4.624559-14.081988 11.040613l-49.370286 180.982717-27.539036-96.490786c-1.874821-6.457717-7.74926-10.915624-14.456953-10.915624h-42.329291c-5.41615-.041663-10.415672 2.7914-13.16541 7.457621-2.708074 4.666221-2.708074 10.457335 0 15.123556 2.749738 4.666221 7.74926 7.499284 13.16541 7.457621h31.038702l39.20459 137.278557c1.874821 6.457717 7.790922 10.915624 14.540278 10.873962 6.707693-.041663 12.582132-4.582896 14.373627-11.040613l46.787199-171.566949 19.289825 96.449123c1.333206 6.832681 7.249307 11.832203 14.206976 12.040517 6.999332.249976 13.16541-4.374583 14.998568-11.123938l26.247493-98.407269 18.664885 87.11668c1.458194 6.916007 7.582609 11.873867 14.665266 11.873867h42.329291c5.416149.041662 10.457335-2.791401 13.165409-7.457622 2.708075-4.666221 2.708075-10.457334 0-15.123555-2.708074-4.666221-7.74926-7.499284-13.165409-7.415959h-30.205449l-29.205544-136.320315c-1.458194-6.791018-7.374296-11.665553-14.290302-11.832204-6.957669-.208313-13.082084 4.416245-14.87358 11.123938l-25.747541 96.532448-19.123174-95.615869c-1.458194-7.165982-7.832585-12.24883-15.123556-12.040517zm0 0" fill="none" stroke="#212121" stroke-linecap="round" stroke-linejoin="round" stroke-width="3" transform="matrix(.093759 0 0 .093759 0 20.158175)"/></svg>

<?xml version="1.0" encoding="UTF-8"?>
<svg xmlns="http://www.w3.org/2000/svg" xmlns:xlink="http://www.w3.org/1999/xlink" width="48px" height="48px" viewBox="0 0 48 48" version="1.1">
<defs>
<linearGradient id="linear0" gradientUnits="userSpaceOnUse" x1="254" y1="233.5" x2="254" y2="254.666672" gradientTransform="matrix(0.093759,0,0,0.093759,-0.00000572259,20.158178)">
<stop offset="0" style="stop-color:rgb(0%,0%,0%);stop-opacity:0.27451;"/>
<stop offset="1" style="stop-color:rgb(0%,0%,0%);stop-opacity:0;"/>
</linearGradient>
<radialGradient id="radial0" gradientUnits="userSpaceOnUse" cx="450.908936" cy="189.579361" fx="450.908936" fy="189.579361" r="21.166656" gradientTransform="matrix(0.000000261256,-0.117199,-0.210958,-0.000000152308,79.684395,95.392999)">
<stop offset="0" style="stop-color:rgb(0%,0%,0%);stop-opacity:0.313726;"/>
<stop offset="0.222222" style="stop-color:rgb(0%,0%,0%);stop-opacity:0.27451;"/>
<stop offset="1" style="stop-color:rgb(0%,0%,0%);stop-opacity:0;"/>
</radialGradient>
<radialGradient id="radial1" gradientUnits="userSpaceOnUse" cx="450.908936" cy="189.579361" fx="450.908936" fy="189.579361" r="21.166656" gradientTransform="matrix(-0.000000261256,0.117199,0.210958,0.000000152308,-31.80678,-11.291218)">
<stop offset="0" style="stop-color:rgb(0%,0%,0%);stop-opacity:0.313726;"/>
<stop offset="0.222222" style="stop-color:rgb(0%,0%,0%);stop-opacity:0.27451;"/>
<stop offset="1" style="stop-color:rgb(0%,0%,0%);stop-opacity:0;"/>
</radialGradient>
<radialGradient id="radial2" gradientUnits="userSpaceOnUse" cx="450.908936" cy="189.579361" fx="450.908936" fy="189.579361" r="21.166656" gradientTransform="matrix(-0.000000261256,-0.117199,0.210958,-0.000000152308,-31.80678,95.392999)">
<stop offset="0" style="stop-color:rgb(0%,0%,0%);stop-opacity:0.313726;"/>
<stop offset="0.222222" style="stop-color:rgb(0%,0%,0%);stop-opacity:0.27451;"/>
<stop offset="1" style="stop-color:rgb(0%,0%,0%);stop-opacity:0;"/>
</radialGradient>
<radialGradient id="radial3" gradientUnits="userSpaceOnUse" cx="450.908936" cy="189.579361" fx="450.908936" fy="189.579361" r="21.166656" gradientTransform="matrix(0.000000261256,0.117199,-0.210958,0.000000152308,79.684393,-11.291219)">
<stop offset="0" style="stop-color:rgb(0%,0%,0%);stop-opacity:0.313726;"/>
<stop offset="0.222222" style="stop-color:rgb(0%,0%,0%);stop-opacity:0.27451;"/>
<stop offset="1" style="stop-color:rgb(0%,0%,0%);stop-opacity:0;"/>
</radialGradient>
<linearGradient id="linear1" gradientUnits="userSpaceOnUse" x1="254" y1="233.5" x2="254" y2="-168.666672" gradientTransform="matrix(0.093759,0,0,0.093759,0,20.158175)">
<stop offset="0" style="stop-color:rgb(9.803922%,46.27451%,82.352942%);stop-opacity:1;"/>
<stop offset="1" style="stop-color:rgb(11.764706%,53.333336%,89.803922%);stop-opacity:1;"/>
</linearGradient>
<linearGradient id="linear2" gradientUnits="userSpaceOnUse" x1="275.166656" y1="233.5" x2="275.166656" y2="-168.666656" gradientTransform="matrix(0.093759,0,0,0.093759,0,20.158175)">
<stop offset="0" style="stop-color:rgb(74.117649%,74.117649%,74.117649%);stop-opacity:1;"/>
<stop offset="1" style="stop-color:rgb(87.843138%,87.843138%,87.843138%);stop-opacity:1;"/>
</linearGradient>
</defs>
<g id="surface1">
<path style=" stroke:none;fill-rule:nonzero;fill:url(#linear0);" d="M 7.691406 42.050781 L 40.1875 42.050781 L 40.1875 44.035156 L 7.691406 44.035156 Z M 7.691406 42.050781 "/>
<path style=" stroke:none;fill-rule:nonzero;fill:url(#radial0);" d="M 40.1875 42.050781 L 44.15625 42.050781 L 44.15625 40.066406 L 40.1875 40.066406 Z M 40.1875 42.050781 "/>
<path style=" stroke:none;fill-rule:nonzero;fill:url(#radial1);" d="M 7.691406 42.050781 L 3.722656 42.050781 L 3.722656 44.035156 L 7.691406 44.035156 Z M 7.691406 42.050781 "/>
<path style=" stroke:none;fill-rule:nonzero;fill:url(#radial2);" d="M 7.691406 42.050781 L 3.722656 42.050781 L 3.722656 40.066406 L 7.691406 40.066406 Z M 7.691406 42.050781 "/>
<path style=" stroke:none;fill-rule:nonzero;fill:url(#radial3);" d="M 40.1875 42.050781 L 44.15625 42.050781 L 44.15625 44.035156 L 40.1875 44.035156 Z M 40.1875 42.050781 "/>
<path style=" stroke:none;fill-rule:nonzero;fill:url(#linear1);" d="M 5.457031 4.34375 L 42.171875 4.34375 C 42.992188 4.34375 43.660156 5.011719 43.660156 5.832031 L 43.660156 40.5625 C 43.660156 41.382812 42.992188 42.050781 42.171875 42.050781 L 5.457031 42.050781 C 4.636719 42.050781 3.96875 41.382812 3.96875 40.5625 L 3.96875 5.832031 C 3.96875 5.011719 4.636719 4.34375 5.457031 4.34375 Z M 5.457031 4.34375 "/>
<path style=" stroke:none;fill-rule:nonzero;fill:rgb(100%,100%,100%);fill-opacity:0.392157;" d="M 5.457031 4.34375 C 4.632812 4.34375 3.96875 5.007812 3.96875 5.832031 L 3.96875 6.082031 C 3.96875 5.257812 4.632812 4.59375 5.457031 4.59375 L 42.171875 4.59375 C 42.996094 4.59375 43.660156 5.257812 43.660156 6.082031 L 43.660156 5.832031 C 43.660156 5.007812 42.996094 4.34375 42.171875 4.34375 Z M 5.457031 4.34375 "/>
<path style=" stroke:none;fill-rule:nonzero;fill:rgb(1.176471%,1.176471%,1.176471%);fill-opacity:0.235294;" d="M 5.457031 42.050781 C 4.632812 42.050781 3.96875 41.386719 3.96875 40.5625 L 3.96875 40.3125 C 3.96875 41.136719 4.632812 41.800781 5.457031 41.800781 L 42.171875 41.800781 C 42.996094 41.800781 43.660156 41.136719 43.660156 40.3125 L 43.660156 40.5625 C 43.660156 41.386719 42.996094 42.050781 42.171875 42.050781 Z M 5.457031 42.050781 "/>
<path style=" stroke:none;fill-rule:nonzero;fill:rgb(12.941177%,12.941177%,12.941177%);fill-opacity:1;" d="M 5.457031 4.203125 C 4.558594 4.203125 3.828125 4.933594 3.828125 5.832031 L 3.828125 40.5625 C 3.828125 41.460938 4.558594 42.191406 5.457031 42.191406 L 42.171875 42.191406 C 43.070312 42.191406 43.800781 41.460938 43.800781 40.5625 L 43.800781 5.832031 C 43.800781 4.933594 43.070312 4.203125 42.171875 4.203125 Z M 5.457031 4.484375 L 42.171875 4.484375 C 42.921875 4.484375 43.519531 5.082031 43.519531 5.832031 L 43.519531 40.5625 C 43.519531 41.3125 42.921875 41.910156 42.171875 41.910156 L 5.457031 41.910156 C 4.707031 41.910156 4.109375 41.3125 4.109375 40.5625 L 4.109375 5.832031 C 4.109375 5.082031 4.707031 4.484375 5.457031 4.484375 Z M 5.457031 4.484375 "/>
<path style=" stroke:none;fill-rule:evenodd;fill:url(#linear2);" d="M 23.777344 10.878906 C 23.15625 10.894531 22.621094 11.3125 22.457031 11.914062 L 17.828125 28.882812 L 15.246094 19.835938 C 15.070312 19.230469 14.519531 18.8125 13.890625 18.8125 L 9.921875 18.8125 C 9.414062 18.808594 8.945312 19.074219 8.6875 19.511719 C 8.433594 19.949219 8.433594 20.492188 8.6875 20.929688 C 8.945312 21.367188 9.414062 21.632812 9.921875 21.628906 L 12.832031 21.628906 L 16.507812 34.5 C 16.683594 35.105469 17.238281 35.523438 17.871094 35.519531 C 18.5 35.515625 19.050781 35.089844 19.21875 34.484375 L 23.605469 18.398438 L 25.414062 27.441406 C 25.539062 28.082031 26.09375 28.550781 26.746094 28.570312 C 27.402344 28.59375 27.980469 28.160156 28.152344 27.527344 L 30.613281 18.300781 L 32.363281 26.46875 C 32.5 27.117188 33.074219 27.582031 33.738281 27.582031 L 37.707031 27.582031 C 38.214844 27.585938 38.6875 27.320312 38.941406 26.882812 C 39.195312 26.445312 39.195312 25.902344 38.941406 25.464844 C 38.6875 25.027344 38.214844 24.761719 37.707031 24.769531 L 34.875 24.769531 L 32.136719 11.988281 C 32 11.351562 31.445312 10.894531 30.796875 10.878906 C 30.144531 10.859375 29.570312 11.292969 29.402344 11.921875 L 26.988281 20.972656 L 25.195312 12.007812 C 25.058594 11.335938 24.460938 10.859375 23.777344 10.878906 Z M 23.777344 10.878906 "/>
<path style=" stroke:none;fill-rule:evenodd;fill:rgb(97.254902%,97.254902%,97.254902%);fill-opacity:1;" d="M 23.777344 10.878906 C 23.15625 10.894531 22.621094 11.3125 22.457031 11.914062 L 17.828125 28.882812 L 15.246094 19.835938 C 15.070312 19.230469 14.519531 18.8125 13.890625 18.8125 L 9.921875 18.8125 C 9.488281 18.808594 9.074219 19.003906 8.800781 19.347656 C 8.53125 19.691406 8.433594 20.136719 8.539062 20.5625 C 8.699219 19.929688 9.269531 19.488281 9.921875 19.496094 L 13.890625 19.496094 C 14.519531 19.496094 15.070312 19.910156 15.246094 20.515625 L 17.828125 29.5625 L 22.457031 12.59375 C 22.621094 11.996094 23.15625 11.574219 23.777344 11.558594 C 24.460938 11.539062 25.058594 12.015625 25.195312 12.6875 L 26.988281 21.65625 L 29.402344 12.601562 C 29.570312 11.972656 30.144531 11.542969 30.796875 11.558594 C 31.445312 11.574219 32 12.035156 32.136719 12.667969 L 34.875 25.449219 L 37.707031 25.449219 C 38.359375 25.441406 38.929688 25.882812 39.089844 26.515625 C 39.195312 26.089844 39.097656 25.644531 38.828125 25.300781 C 38.558594 24.960938 38.144531 24.761719 37.707031 24.769531 L 34.875 24.769531 L 32.136719 11.988281 C 32 11.351562 31.445312 10.894531 30.796875 10.875 C 30.144531 10.859375 29.570312 11.292969 29.402344 11.921875 L 26.988281 20.972656 L 25.195312 12.007812 C 25.058594 11.335938 24.460938 10.859375 23.777344 10.878906 Z M 23.777344 10.878906 "/>
<path style=" stroke:none;fill-rule:evenodd;fill:rgb(0%,0%,0%);fill-opacity:0.235294;" d="M 30.613281 18.382812 L 28.152344 27.613281 C 27.980469 28.246094 27.402344 28.675781 26.746094 28.65625 C 26.09375 28.636719 25.539062 28.167969 25.414062 27.527344 L 23.605469 18.484375 L 19.21875 34.566406 C 19.050781 35.175781 18.5 35.597656 17.871094 35.601562 C 17.238281 35.605469 16.683594 35.191406 16.507812 34.582031 L 12.832031 21.710938 L 9.921875 21.710938 C 9.296875 21.71875 8.742188 21.316406 8.558594 20.71875 C 8.425781 21.148438 8.507812 21.613281 8.777344 21.972656 C 9.046875 22.335938 9.472656 22.542969 9.921875 22.539062 L 12.832031 22.539062 L 16.507812 35.410156 C 16.683594 36.015625 17.238281 36.433594 17.871094 36.429688 C 18.5 36.425781 19.050781 36 19.21875 35.394531 L 23.605469 19.308594 L 25.414062 28.351562 C 25.539062 28.992188 26.09375 29.460938 26.746094 29.480469 C 27.402344 29.503906 27.980469 29.070312 28.152344 28.4375 L 30.613281 19.210938 L 32.363281 27.378906 C 32.5 28.027344 33.074219 28.492188 33.738281 28.492188 L 37.707031 28.492188 C 38.15625 28.496094 38.582031 28.289062 38.851562 27.929688 C 39.121094 27.570312 39.203125 27.101562 39.070312 26.671875 C 38.886719 27.269531 38.332031 27.671875 37.707031 27.664062 L 33.738281 27.664062 C 33.074219 27.664062 32.5 27.203125 32.363281 26.554688 Z M 30.613281 18.382812 "/>
<path style="fill:none;stroke-width:3;stroke-linecap:round;stroke-linejoin:round;stroke:rgb(12.941177%,12.941177%,12.941177%);stroke-opacity:1;stroke-miterlimit:4;" d="M 253.600782 -98.969414 C 246.976415 -98.802763 241.268627 -94.344855 239.518794 -87.928801 L 190.148508 93.053916 L 162.609472 -3.43687 C 160.734651 -9.894587 154.860212 -14.352494 148.152519 -14.352494 L 105.823228 -14.352494 C 100.407078 -14.394157 95.407556 -11.561094 92.657818 -6.894873 C 89.949744 -2.228652 89.949744 3.562462 92.657818 8.228683 C 95.407556 12.894904 100.407078 15.727967 105.823228 15.686304 L 136.86193 15.686304 L 176.06652 152.964861 C 177.941341 159.422578 183.857442 163.880485 190.606798 163.838823 C 197.314491 163.79716 203.18893 159.255927 204.980425 152.79821 L 251.767624 -18.768739 L 271.057449 77.680384 C 272.390655 84.513065 278.306756 89.512587 285.264425 89.720901 C 292.263757 89.970877 298.429835 85.346318 300.262993 78.596963 L 326.510486 -19.810306 L 345.175371 67.306374 C 346.633565 74.222381 352.75798 79.180241 359.840637 79.180241 L 402.169928 79.180241 C 407.586077 79.221903 412.627263 76.38884 415.335337 71.722619 C 418.043412 67.056398 418.043412 61.265285 415.335337 56.599064 C 412.627263 51.932843 407.586077 49.09978 402.169928 49.183105 L 371.964479 49.183105 L 342.758935 -87.13721 C 341.300741 -93.928228 335.384639 -98.802763 328.468633 -98.969414 C 321.510964 -99.177727 315.386549 -94.553169 313.595053 -87.845476 L 287.847512 8.686972 L 268.724338 -86.928897 C 267.266144 -94.094879 260.891753 -99.177727 253.600782 -98.969414 Z M 253.600782 -98.969414 " transform="matrix(0.093759,0,0,0.093759,0,20.158175)"/>
</g>
</svg>
